X: 4801
T: Boys Of The Lough, The
R: reel
M: 4/4
K: Dmajor
dB|:AF (3FFF A2AB|defd efdB|AF (3FFF ABAF|EDEF E2FG|
AF (3FFF A2AB|defd efdB|AF (3FFF ABAF|1 EDEF D2dB:|2 EDEF D2de||
faag f3e|d2fd efdB|AF (3FFF ABAF|EDEF E2 de|
faag f3e|d2fd efdB|AF (3FFF ABAF|EDEF D2
faag f3e|d2fd efdB|AF (3FFF ABde|fdgf e2 fg|
abag fgfe|d2fd efdB|AF (3FFF dFAF|EDEF D4||

